!! 00000] TT[WS
!!!OTL: Jin lanfang
!!!ARE: Asia, China, Shanxi Gaoping
!! Ethnic Group: Han
!! WII, 202 (2)
!!!SCT: J0703
!!!YEM: Copyright 1995, estate of Helmut Schaffrath.
**kern
*ICvox
*Ivox
*M2/4
*k[b-]
*F:
{4g
8g
8cc
=1
8cc
8a
4cc
=2
4g
8g
8cc
=3
8a
8g
8f
16d
16f
=4
4g
8g
8a
=5
4g
8g
8a}
=6
{4a
4dd
=7
8.cc
16dd
8cc
8a
=8
4g
8g
8cc
=9
8a
8g
8f
16d
16f
=10
4g
8g
8a}
=11
{8c
8c
8c
8d
=12
8d
8cc
8a
8g
=13
4.f
8d
=14
2f}
=15
{4a
8a
8f
=16
8g
8a
8g
8f
=17
8d
8A
[4c
=18
4c]}
{8d
8d
=19
4g
8g
8r
=20
4a
4cc
=21
8.dd
16ff
8dd
8cc
=22
4cc
4a
=23
2g}
==
!!!AGN: Xiaodiao, Shidiao. Fengsu, Sichun
!!!ONB: ESAC (Essen Associative Code) Database: CHINA
!!!AMT: simple duple
!!!AIN: vox
!!!EED: Helmut Schaffrath
!!!EEV: 1.0
*-
!!!ONB: Tied note syntax fixed by Craig Sapp, 2004/05/03/
